X:24
T:Prenons la main que Dieu nous tend - T42-2
C:J. Akepsimas
M:C
L:1/8
K:C
E|"Do"E2G2 "Sol"G3D|"Lam"C2E2 "Mim"E3E|"Fa"A2A2 "Mim"G3G|"La"AG FE "Rem"FF GA|\
"Sol"G4 "Do"E3E|"Lam"A2"Mi"B2 "Lam"c3c|"Si"B2A2 "Mim"B3E|"Fa"A2A2 "Mim"G3G|
"La"AG FE "Rem"FF GA|"Sol"G4 "Do"E3C|"Fa"C2F2 "Do"E3E|"Re"D2C2 "Sol"D3E|\
"Fa"A2A2 "Do"G3G|"La"AG FE "Rem"FF GA|"Do"G4"Sol"F4|"Do"E8||
